resources/svg/top-left-o.svg

<svg xmlns="http://www.w3.org/2000/svg" viewBox="0 0 15 15" fill="none"><path d="M1.5 1.5V1C1.22386 1 1 1.22386 1 1.5H1.5ZM1.5 2H6.99999V1H1.5V2ZM1 1.5V7H2V1.5H1ZM1.14645 1.85355L13.1464 13.8536L13.8535 13.1464L1.85355 1.14645L1.14645 1.85355Z" fill="black"/></svg>

<svg xmlns="http://www.w3.org/2000/svg" viewBox="0 0 15 15" fill="none"><path d="M1.5 1.5V1a.5.5 0 00-.5.5h.5zm0 .5H7V1H1.5v1zM1 1.5V7h1V1.5H1zm.146.354l12 12 .707-.708-12-12-.707.708z" fill="currentColor"/></svg>
